X: 1
T:Our Director (The Harvard Rugby Song)
M:6/8
L:1/8
Q:80
C:Arr. Jason Freidendelds, David Williams
S:March
K:HP
|: e3|
{A}e6|
e2de2f|  !
{gef}e6|
{gcd}c6{gfg}f6|
{gf}g3f3|  !
{gef}e6|
e6{Gdc}d6|
{gef}e3d3|  !
{gcd}c6|
{gef}e6{ag}a3{g}a3|
{f}g3f3|  !
{gef}e3{g}d3|
{gcd}c3{e}B3{g}e6|
e2de2f|  !
{gef}e6|
{gcd}c6{gfg}f6|
{gf}g3f3|  !
{gef}e6|
e6{ag}a6|
{f}g3f3|  !
{gef}e6|
{G}A3{Gdc}d3{gcd}c6|
{GdG}c3{gBd}B3|  !
{G}A6|
{GAG}A3
